svg/database_remove.svg

<svg xmlns="http://www.w3.org/2000/svg" viewBox="0 0 24 24"><path d="m15.46 15.88 1.42-1.42L19 16.59l2.12-2.12 1.41 1.41L20.41 18l2.13 2.12-1.42 1.42L19 19.41l-2.12 2.12-1.41-1.41L17.59 18zM12 3c4.42 0 8 1.79 8 4s-3.58 4-8 4-8-1.79-8-4 3.58-4 8-4M4 9c0 2.21 3.58 4 8 4s8-1.79 8-4v3.08L19 12c-2.59 0-4.8 1.64-5.64 3.94L12 16c-4.42 0-8-1.79-8-4zm0 5c0 2.21 3.58 4 8 4h1c0 1.05.27 2.04.75 2.9L12 21c-4.42 0-8-1.79-8-4z"/></svg>

<?xml version="1.0" encoding="UTF-8"?><!DOCTYPE svg PUBLIC "-//W3C//DTD SVG 1.1//EN" "http://www.w3.org/Graphics/SVG/1.1/DTD/svg11.dtd"><svg xmlns="http://www.w3.org/2000/svg" xmlns:xlink="http://www.w3.org/1999/xlink" version="1.1" id="mdi-database-remove" width="24" height="24" viewBox="0 0 24 24"><path d="M15.46,15.88L16.88,14.46L19,16.59L21.12,14.47L22.53,15.88L20.41,18L22.54,20.12L21.12,21.54L19,19.41L16.88,21.53L15.47,20.12L17.59,18L15.46,15.88M12,3C16.42,3 20,4.79 20,7C20,9.21 16.42,11 12,11C7.58,11 4,9.21 4,7C4,4.79 7.58,3 12,3M4,9C4,11.21 7.58,13 12,13C16.42,13 20,11.21 20,9V12.08L19,12C16.41,12 14.2,13.64 13.36,15.94L12,16C7.58,16 4,14.21 4,12V9M4,14C4,16.21 7.58,18 12,18H13C13,19.05 13.27,20.04 13.75,20.9L12,21C7.58,21 4,19.21 4,17V14Z" /></svg>
